resources/svg/minor-pintrest.svg

<svg xmlns="http://www.w3.org/2000/svg" viewBox="0 0 20 20" fill="currentColor"><path fill-rule="evenodd" fill="currentColor" d="M10 3C6.13401 3 3 6.13401 3 10C3 13.866 6.13401 17 10 17C13.866 17 17 13.866 17 10C17 6.13401 13.866 3 10 3ZM10.1843 5.25C7.28779 5.25 5.75 7.07845 5.75 9.06904C5.75 9.99479 6.27395 11.147 7.11228 11.514C7.23926 11.5696 7.30741 11.5456 7.33658 11.4298C7.34541 11.3952 7.36828 11.3078 7.39587 11.2024C7.43838 11.04 7.49208 10.8348 7.52292 10.714C7.53918 10.6504 7.53119 10.5958 7.47647 10.5331C7.19899 10.2166 6.97704 9.63506 6.97704 9.09282C6.97704 7.70079 8.09772 6.35392 10.0069 6.35392C11.6555 6.35392 12.8097 7.41049 12.8097 8.92145C12.8097 10.6285 11.8929 11.8113 10.7002 11.8113C10.0415 11.8113 9.54829 11.2989 9.70649 10.6705C9.77493 10.4 9.86633 10.1218 9.95522 9.85114C10.1128 9.37152 10.2625 8.91586 10.2625 8.56951C10.2625 8.08503 9.98629 7.68064 9.41356 7.68064C8.74015 7.68064 8.19942 8.33551 8.19942 9.21321C8.19942 9.77173 8.40022 10.1499 8.40022 10.1499C8.40022 10.1499 7.73509 12.7946 7.61325 13.2869C7.47838 13.8303 7.53095 14.5937 7.58931 15.0928C7.74068 15.1486 7.8921 15.2045 8.04859 15.25C8.32269 14.831 8.7314 14.1438 8.88289 13.5958C8.9647 13.3005 9.30127 12.0956 9.30127 12.0956C9.51988 12.4881 10.159 12.8203 10.8391 12.8203C12.8629 12.8203 14.3214 11.07 14.3214 8.89499C14.3214 6.80974 12.5124 5.25 10.1843 5.25Z"/></svg>

<svg xmlns="http://www.w3.org/2000/svg" viewBox="0 0 20 20" fill="currentColor"><path fill-rule="evenodd" fill="currentColor" d="M10 3a7 7 0 1 0 0 14 7 7 0 0 0 0-14Zm.184 2.25c-2.896 0-4.434 1.828-4.434 3.819 0 .926.524 2.078 1.362 2.445.127.056.195.032.225-.084.008-.035.031-.122.059-.228l.127-.488c.016-.064.008-.118-.047-.18-.277-.317-.499-.899-.499-1.441 0-1.392 1.12-2.74 3.03-2.74 1.649 0 2.803 1.057 2.803 2.568 0 1.708-.917 2.89-2.11 2.89-.659 0-1.152-.512-.994-1.14.069-.271.16-.55.25-.82.157-.48.306-.935.306-1.281 0-.485-.276-.89-.848-.89-.674 0-1.215.656-1.215 1.533 0 .559.201.937.201.937s-.665 2.645-.787 3.137c-.135.543-.082 1.307-.024 1.806.152.056.303.111.46.157.274-.419.682-1.106.834-1.654l.418-1.5c.219.392.858.724 1.538.724 2.024 0 3.482-1.75 3.482-3.925 0-2.085-1.809-3.645-4.137-3.645Z"/></svg>
